asset/icons/Union.svg

<svg width="16" height="20" xmlns="http://www.w3.org/2000/svg" fill="none">
 <defs>
  <linearGradient y2="1" x2="0" y1="0" x1="0" id="svg_6">
   <stop stop-opacity="0.99609" offset="0" stop-color="#f087fe"/>
   <stop stop-opacity="0.99609" offset="1" stop-color="#782289"/>
  </linearGradient>
 </defs>
 <g>
  <title>Layer 1</title>
  <path stroke="null" id="svg_1" fill="url(#svg_6)" d="m1.25,6.325c-0.83333,1.36667 -1.25,2.925 -1.25,4.675c0,1.4667 0.28333,3.2917 1,4.5c0.54829,0.9244 0.5,1 2.5,3c2,1.5 3.23092,1 4,1c3.6459,0.0002 7.4683,-3.8797 7.8198,-5.2452c0.4535,-1.0032 0.6802,-2.0881 0.6802,-3.2548c0,-1.48333 -0.3667,-2.84583 -1.1,-4.0875c-0.7333,-1.24167 -1.7,-2.2125 -2.9,-2.9125l-0.45,0.55c-0.2167,0.26667 -0.4542,0.45833 -0.7125,0.575c-0.2583,0.11667 -0.5292,0.175 -0.8125,0.175c-0.51667,0 -0.98333,-0.17917 -1.4,-0.5375c-0.41667,-0.35833 -0.625,-0.84583 -0.625,-1.4625l0,-3.3l-1.25,0.7375c-0.83333,0.49167 -1.75,1.20417 -2.75,2.1375c-1,0.93333 -1.91667,2.08333 -2.75,3.45z"/>
 </g>
</svg>

<svg width="16" height="20" viewBox="0 0 16 20" fill="none" xmlns="http://www.w3.org/2000/svg">
<path d="M1.25 6.325C0.416667 7.69167 0 9.25 0 11C0 12.4667 0.283334 14.2917 1 15.5C1.54829 16.4244 1.5 16.5 3.5 18.5C5.5 20 6.73092 19.5 7.5 19.5C11.1459 19.5002 14.9683 15.6203 15.3198 14.2548C15.7733 13.2516 16 12.1667 16 11C16 9.51667 15.6333 8.15417 14.9 6.9125C14.1667 5.67083 13.2 4.7 12 4L11.55 4.55C11.3333 4.81667 11.0958 5.00833 10.8375 5.125C10.5792 5.24167 10.3083 5.3 10.025 5.3C9.50833 5.3 9.04167 5.12083 8.625 4.7625C8.20833 4.40417 8 3.91667 8 3.3V0L6.75 0.7375C5.91667 1.22917 5 1.94167 4 2.875C3 3.80833 2.08333 4.95833 1.25 6.325Z" fill="#004EEB"/>
</svg>
